src/assets/cards/0C.svg

<svg clip-rule="evenodd" fill-rule="evenodd" stroke-linejoin="round" stroke-miterlimit="2" viewBox="0 0 934 1300" xmlns="http://www.w3.org/2000/svg"><g fill-rule="nonzero"><path d="m899.918 1241.94h-12.961v-131.28h12.961zm-51.381 0c12.482 0 22.504-11.2 22.504-25.1v-81.09c0-13.89-10.022-25.1-22.504-25.1h-7.263c-12.481 0-22.529 11.21-22.529 25.1v81.09c0 13.9 10.048 25.1 22.529 25.1zm-3.751-12.42c-7.363 0-13.296-5.57-13.296-12.5v-82.18c0-6.94 5.933-12.52 13.296-12.52 7.376 0 13.297 5.58 13.297 12.52v82.18c0 6.93-5.921 12.5-13.297 12.5z"/><path d="m33.393 58.067h12.962v131.279h-12.962zm51.373 0c-12.475 0-22.503 11.198-22.503 25.095v81.092c0 13.904 10.028 25.095 22.503 25.095h7.272c12.475 0 22.522-11.191 22.522-25.095v-81.092c0-13.897-10.047-25.095-22.522-25.095zm3.756 12.412c7.366 0 13.297 5.57 13.297 12.506v82.179c0 6.937-5.931 12.526-13.297 12.526-7.372 0-13.297-5.589-13.297-12.526v-82.179c0-6.936 5.925-12.506 13.297-12.506z"/><path d="m648.479 629.445c12-24.067 20.709-48.754 22.292-75.158 1.417-9.713-4.5-9.875-5.375-3.034-17 64.967-107.333 47.375-104.25-13.737 2.542-49.563 51.75-60.225 77.417-44.017 10.166 5.967 9.583 2.392 4.041-3.8-38.125-42.55-15.041-97.341 36.5-98.346 55.75 3.309 70.209 61.959 36.042 96.455-4.25 4.141-13.708 17.462.5 8.15 34.542-24.534 82.458 1.845 81.458 39.666-1.791 69.75-86.833 74.95-105 16.696-1.75-6.458-6.791-9.708-5.416 1.267 2.541 19.858 7.75 49.804 22.666 75.858zm-431.416 0c12-24.067 20.75-48.754 22.291-75.158 1.459-9.713-4.458-9.875-5.333-3.034-17 64.967-107.375 47.375-104.25-13.737 2.5-49.563 51.75-60.225 77.417-44.017 10.125 5.967 9.583 2.392 4.041-3.8-38.166-42.55-15.041-97.341 36.5-98.346 55.75 3.309 70.209 61.959 36 96.455-4.25 4.141-13.666 17.462.542 8.15 34.5-24.534 82.417 1.845 81.458 39.666-1.791 69.75-86.833 74.95-105 16.696-1.75-6.458-6.791-9.708-5.416 1.267 2.541 19.858 7.75 49.804 22.666 75.858zm215.5-136.108c12-24.063 20.75-48.75 22.291-75.154 1.417-9.717-4.5-9.875-5.375-3.038-17 64.971-107.333 47.375-104.25-13.733 2.542-49.563 51.75-60.225 77.459-44.021 10.125 5.971 9.541 2.396 4-3.796-38.125-42.55-15.042-97.342 36.5-98.346 55.75 3.309 70.25 61.959 36.041 96.45-4.25 4.146-13.666 17.467.5 8.154 34.542-24.533 82.459 1.846 81.5 39.667-1.833 69.75-86.875 74.95-105.041 16.692-1.75-6.459-6.792-9.7-5.375 1.271 2.5 19.858 7.708 49.804 22.625 75.854zm215.916-136.104c12-24.067 20.709-48.755 22.292-75.155 1.417-9.716-4.5-9.879-5.375-3.037-17 64.971-107.333 47.375-104.25-13.733 2.542-49.563 51.75-60.225 77.417-44.021 10.166 5.971 9.583 2.396 4.041-3.8-38.125-42.546-15.041-97.342 36.5-98.342 55.75 3.304 70.209 61.958 36.042 96.45-4.25 4.146-13.708 17.463.5 8.15 34.542-24.533 82.458 1.846 81.458 39.671-1.791 69.746-86.833 74.946-105 16.692-1.75-6.459-6.791-9.705-5.416 1.266 2.541 19.863 7.75 49.809 22.666 75.859zm-431.416 0c12-24.067 20.75-48.755 22.291-75.155 1.459-9.716-4.458-9.879-5.333-3.037-17 64.971-107.375 47.375-104.25-13.733 2.5-49.563 51.75-60.225 77.417-44.021 10.125 5.971 9.583 2.396 4.041-3.8-38.166-42.546-15.041-97.342 36.5-98.342 55.75 3.304 70.209 61.958 36 96.45-4.25 4.146-13.666 17.463.542 8.15 34.5-24.533 82.417 1.846 81.458 39.671-1.791 69.746-86.833 74.946-105 16.692-1.75-6.459-6.791-9.705-5.416 1.266 2.541 19.863 7.75 49.809 22.666 75.859zm61.291 313.329c-12 24.066-20.75 48.754-22.291 75.158-1.417 9.713 4.458 9.875 5.375 3.033 16.958-64.966 107.333-47.375 104.208 13.738-2.5 49.562-51.75 60.225-77.417 44.017-10.125-5.967-9.541-2.392-4.041 3.8 38.166 42.55 15.041 97.341-36.5 98.345-55.75-3.308-70.209-61.958-36-96.454 4.25-4.141 13.666-17.462-.5-8.15-34.542 24.534-82.459-1.846-81.5-39.666 1.833-69.75 86.833-74.95 105.041-16.696 1.75 6.458 6.792 9.708 5.375-1.267-2.5-19.858-7.75-49.804-22.666-75.858zm0 272.212c-12 24.067-20.75 48.754-22.291 75.156-1.417 9.71 4.458 9.88 5.375 3.04 16.958-64.975 107.333-47.379 104.208 13.73-2.5 49.56-51.75 60.22-77.417 44.02-10.125-5.97-9.541-2.4-4.041 3.8 38.166 42.55 15.041 97.34-36.5 98.34-55.75-3.3-70.209-61.96-36-96.45 4.25-4.14 13.666-17.46-.5-8.15-34.542 24.54-82.459-1.84-81.5-39.67 1.833-69.745 86.833-74.945 105.041-16.69 1.75 6.46 6.792 9.7 5.375-1.27-2.5-19.86-7.75-49.806-22.666-75.856zm431.375-272.212c-12 24.066-20.75 48.754-22.291 75.158-1.417 9.713 4.5 9.875 5.375 3.033 17-64.966 107.333-47.375 104.25 13.738-2.542 49.562-51.75 60.225-77.417 44.017-10.167-5.967-9.583-2.392-4.042 3.8 38.125 42.55 15.042 97.341-36.5 98.345-55.791-3.308-70.25-61.958-36.041-96.454 4.25-4.141 13.666-17.462-.5-8.15-34.542 24.534-82.459-1.846-81.459-39.666 1.792-69.75 86.834-74.95 105-16.696 1.75 6.458 6.792 9.708 5.375-1.267-2.5-19.858-7.708-49.804-22.625-75.858zm0 272.212c-12 24.067-20.75 48.754-22.291 75.156-1.417 9.71 4.5 9.88 5.375 3.04 17-64.975 107.333-47.379 104.25 13.73-2.542 49.56-51.75 60.22-77.417 44.02-10.167-5.97-9.583-2.4-4.042 3.8 38.125 42.55 15.042 97.34-36.5 98.34-55.791-3.3-70.25-61.96-36.041-96.45 4.25-4.14 13.666-17.46-.5-8.15-34.542 24.54-82.459-1.84-81.459-39.67 1.792-69.745 86.834-74.945 105-16.69 1.75 6.46 6.792 9.7 5.375-1.27-2.5-19.86-7.708-49.806-22.625-75.856zm-213.958-136.104c-12 24.063-20.75 48.75-22.292 75.154-1.416 9.717 4.5 9.875 5.375 3.038 17-64.971 107.334-47.375 104.25 13.733-2.541 49.563-51.75 60.225-77.458 44.021-10.125-5.971-9.542-2.396-4 3.796 38.125 42.55 15.042 97.338-36.5 98.348-55.75-3.31-70.208-61.961-36.042-96.452 4.25-4.146 13.709-17.467-.5-8.155-34.541 24.534-82.458-1.845-81.458-39.666 1.792-69.75 86.833-74.95 105-16.692 1.75 6.458 6.792 9.7 5.375-1.271-2.5-19.858-7.708-49.804-22.625-75.854zm-439.333-492.767c4.958-10.187 9.791-19.67 12.458-30.837 1.75-10.533-1.833-6.621-3.875.283-3 9.571-11.333 13.934-19.083 14.038-14.042.187-21.042-10.85-20.625-22.725-1.5-12.496 11.125-21.334 20.666-20.654 7.209.512 13.459 4.383 17.25 7.395 2.459 1.317 5.125 1.896 1.417-1.491-7-7.638-12.792-12.35-12.667-23.792.125-10.75 9.292-21.954 21.459-21.604 15.208.442 22.125 12.042 22.125 22.833-.042 7.875-4 15.113-10.084 19.6-3.916 3.192-2.833 5.584 1.667 2.559 4.333-3.717 9.458-5.342 14.792-5.459 14.541-.225 20.208 12.342 19.375 24.021-.792 10.938-10.084 22.2-22.375 20.925-10.959-1.258-16.709-10.458-20-19.904-1.084-2.896-2.834-3.679-2.792.637 2.542 21.075 10.375 34.188 10.458 34.175zm820.458 675.013c-5 10.187-9.833 19.664-12.458 30.834-1.75 10.53 1.833 6.62 3.875-.28 3-9.58 11.333-13.93 19.083-14.04 14.042-.19 21.042 10.85 20.625 22.73 1.5 12.49-11.167 21.33-20.708 20.65-7.167-.51-13.417-4.39-17.209-7.4-2.5-1.31-5.125-1.89-1.416 1.5 6.958 7.64 12.791 12.35 12.666 23.79-.125 10.75-9.291 21.95-21.458 21.6-15.25-.44-22.167-12.04-22.125-22.83.042-7.87 4-15.11 10.042-19.6 3.958-3.19 2.833-5.58-1.625-2.56-4.334 3.71-9.459 5.34-14.792 5.46-14.542.23-20.208-12.34-19.375-24.02.75-10.94 10.083-22.2 22.375-20.93 10.958 1.26 16.708 10.46 20 19.91 1.083 2.89 2.833 3.68 2.792-.64-2.542-21.07-10.417-34.187-10.459-34.174z"/></g></svg>

<?xml version="1.0" encoding="UTF-8" standalone="no"?>
<!DOCTYPE svg PUBLIC "-//W3C//DTD SVG 1.1//EN" "http://www.w3.org/Graphics/SVG/1.1/DTD/svg11.dtd">
<svg width="100%" height="100%" viewBox="0 0 934 1300" version="1.1" xmlns="http://www.w3.org/2000/svg" xmlns:xlink="http://www.w3.org/1999/xlink" xml:space="preserve" xmlns:serif="http://www.serif.com/" style="fill-rule:evenodd;clip-rule:evenodd;stroke-linejoin:round;stroke-miterlimit:2;">
    <g id="Layer1">
        <path d="M899.918,1241.94L886.957,1241.94L886.957,1110.66L899.918,1110.66L899.918,1241.94ZM848.537,1241.94C861.019,1241.94 871.041,1230.74 871.041,1216.84L871.041,1135.75C871.041,1121.86 861.019,1110.65 848.537,1110.65L841.274,1110.65C828.793,1110.65 818.745,1121.86 818.745,1135.75L818.745,1216.84C818.745,1230.74 828.793,1241.94 841.274,1241.94L848.537,1241.94ZM844.786,1229.52C837.423,1229.52 831.49,1223.95 831.49,1217.02L831.49,1134.84C831.49,1127.9 837.423,1122.32 844.786,1122.32C852.162,1122.32 858.083,1127.9 858.083,1134.84L858.083,1217.02C858.083,1223.95 852.162,1229.52 844.786,1229.52Z" style="fill-rule:nonzero;"/>
        <path d="M33.393,58.067L46.355,58.067L46.355,189.346L33.393,189.346L33.393,58.067ZM84.766,58.067C72.291,58.067 62.263,69.265 62.263,83.162L62.263,164.254C62.263,178.158 72.291,189.349 84.766,189.349L92.038,189.349C104.513,189.349 114.56,178.158 114.56,164.254L114.56,83.162C114.56,69.265 104.513,58.067 92.038,58.067L84.766,58.067ZM88.522,70.479C95.888,70.479 101.819,76.049 101.819,82.985L101.819,165.164C101.819,172.101 95.888,177.69 88.522,177.69C81.15,177.69 75.225,172.101 75.225,165.164L75.225,82.985C75.225,76.049 81.15,70.479 88.522,70.479Z" style="fill-rule:nonzero;"/>
        <path d="M648.479,629.445C660.479,605.378 669.188,580.691 670.771,554.287C672.188,544.574 666.271,544.412 665.396,551.253C648.396,616.22 558.063,598.628 561.146,537.516C563.688,487.953 612.896,477.291 638.563,493.499C648.729,499.466 648.146,495.891 642.604,489.699C604.479,447.149 627.563,392.358 679.104,391.353C734.854,394.662 749.313,453.312 715.146,487.808C710.896,491.949 701.438,505.27 715.646,495.958C750.188,471.424 798.104,497.803 797.104,535.624C795.313,605.374 710.271,610.574 692.104,552.32C690.354,545.862 685.313,542.612 686.688,553.587C689.229,573.445 694.438,603.391 709.354,629.445L648.479,629.445ZM217.063,629.445C229.063,605.378 237.813,580.691 239.354,554.287C240.813,544.574 234.896,544.412 234.021,551.253C217.021,616.22 126.646,598.628 129.771,537.516C132.271,487.953 181.521,477.291 207.188,493.499C217.313,499.466 216.771,495.891 211.229,489.699C173.063,447.149 196.188,392.358 247.729,391.353C303.479,394.662 317.938,453.312 283.729,487.808C279.479,491.949 270.063,505.27 284.271,495.958C318.771,471.424 366.688,497.803 365.729,535.624C363.938,605.374 278.896,610.574 260.729,552.32C258.979,545.862 253.938,542.612 255.313,553.587C257.854,573.445 263.063,603.391 277.979,629.445L217.063,629.445ZM432.563,493.337C444.563,469.274 453.313,444.587 454.854,418.183C456.271,408.466 450.354,408.308 449.479,415.145C432.479,480.116 342.146,462.52 345.229,401.412C347.771,351.849 396.979,341.187 422.688,357.391C432.813,363.362 432.229,359.787 426.688,353.595C388.563,311.045 411.646,256.253 463.188,255.249C518.938,258.558 533.438,317.208 499.229,351.699C494.979,355.845 485.563,369.166 499.729,359.853C534.271,335.32 582.188,361.699 581.229,399.52C579.396,469.27 494.354,474.47 476.188,416.212C474.438,409.753 469.396,406.512 470.813,417.483C473.313,437.341 478.521,467.287 493.438,493.337L432.563,493.337ZM648.479,357.233C660.479,333.166 669.188,308.478 670.771,282.078C672.188,272.362 666.271,272.199 665.396,279.041C648.396,344.012 558.063,326.416 561.146,265.308C563.688,215.745 612.896,205.083 638.563,221.287C648.729,227.258 648.146,223.683 642.604,217.487C604.479,174.941 627.563,120.145 679.104,119.145C734.854,122.449 749.313,181.103 715.146,215.595C710.896,219.741 701.438,233.058 715.646,223.745C750.188,199.212 798.104,225.591 797.104,263.416C795.313,333.162 710.271,338.362 692.104,280.108C690.354,273.649 685.313,270.403 686.688,281.374C689.229,301.237 694.438,331.183 709.354,357.233L648.479,357.233ZM217.063,357.233C229.063,333.166 237.813,308.478 239.354,282.078C240.813,272.362 234.896,272.199 234.021,279.041C217.021,344.012 126.646,326.416 129.771,265.308C132.271,215.745 181.521,205.083 207.188,221.287C217.313,227.258 216.771,223.683 211.229,217.487C173.063,174.941 196.188,120.145 247.729,119.145C303.479,122.449 317.938,181.103 283.729,215.595C279.479,219.741 270.063,233.058 284.271,223.745C318.771,199.212 366.688,225.591 365.729,263.416C363.938,333.162 278.896,338.362 260.729,280.108C258.979,273.649 253.938,270.403 255.313,281.374C257.854,301.237 263.063,331.183 277.979,357.233L217.063,357.233ZM278.354,670.562C266.354,694.628 257.604,719.316 256.063,745.72C254.646,755.433 260.521,755.595 261.438,748.753C278.396,683.787 368.771,701.378 365.646,762.491C363.146,812.053 313.896,822.716 288.229,806.508C278.104,800.541 278.688,804.116 284.188,810.308C322.354,852.858 299.229,907.649 247.688,908.653C191.938,905.345 177.479,846.695 211.688,812.199C215.938,808.058 225.354,794.737 211.188,804.049C176.646,828.583 128.729,802.203 129.688,764.383C131.521,694.633 216.521,689.433 234.729,747.687C236.479,754.145 241.521,757.395 240.104,746.42C237.604,726.562 232.354,696.616 217.438,670.562L278.354,670.562ZM278.354,942.774C266.354,966.841 257.604,991.528 256.063,1017.93C254.646,1027.64 260.521,1027.81 261.438,1020.97C278.396,955.995 368.771,973.591 365.646,1034.7C363.146,1084.26 313.896,1094.92 288.229,1078.72C278.104,1072.75 278.688,1076.32 284.188,1082.52C322.354,1125.07 299.229,1179.86 247.688,1180.86C191.938,1177.56 177.479,1118.9 211.688,1084.41C215.938,1080.27 225.354,1066.95 211.188,1076.26C176.646,1100.8 128.729,1074.42 129.688,1036.59C131.521,966.845 216.521,961.645 234.729,1019.9C236.479,1026.36 241.521,1029.6 240.104,1018.63C237.604,998.77 232.354,968.824 217.438,942.774L278.354,942.774ZM709.729,670.562C697.729,694.628 688.979,719.316 687.438,745.72C686.021,755.433 691.938,755.595 692.813,748.753C709.813,683.787 800.146,701.378 797.063,762.491C794.521,812.053 745.313,822.716 719.646,806.508C709.479,800.541 710.063,804.116 715.604,810.308C753.729,852.858 730.646,907.649 679.104,908.653C623.313,905.345 608.854,846.695 643.063,812.199C647.313,808.058 656.729,794.737 642.563,804.049C608.021,828.583 560.104,802.203 561.104,764.383C562.896,694.633 647.938,689.433 666.104,747.687C667.854,754.145 672.896,757.395 671.479,746.42C668.979,726.562 663.771,696.616 648.854,670.562L709.729,670.562ZM709.729,942.774C697.729,966.841 688.979,991.528 687.438,1017.93C686.021,1027.64 691.938,1027.81 692.813,1020.97C709.813,955.995 800.146,973.591 797.063,1034.7C794.521,1084.26 745.313,1094.92 719.646,1078.72C709.479,1072.75 710.063,1076.32 715.604,1082.52C753.729,1125.07 730.646,1179.86 679.104,1180.86C623.313,1177.56 608.854,1118.9 643.063,1084.41C647.313,1080.27 656.729,1066.95 642.563,1076.26C608.021,1100.8 560.104,1074.42 561.104,1036.59C562.896,966.845 647.938,961.645 666.104,1019.9C667.854,1026.36 672.896,1029.6 671.479,1018.63C668.979,998.77 663.771,968.824 648.854,942.774L709.729,942.774ZM495.771,806.67C483.771,830.733 475.021,855.42 473.479,881.824C472.063,891.541 477.979,891.699 478.854,884.862C495.854,819.891 586.188,837.487 583.104,898.595C580.563,948.158 531.354,958.82 505.646,942.616C495.521,936.645 496.104,940.22 501.646,946.412C539.771,988.962 516.688,1043.75 465.146,1044.76C409.396,1041.45 394.938,982.799 429.104,948.308C433.354,944.162 442.813,930.841 428.604,940.153C394.063,964.687 346.146,938.308 347.146,900.487C348.938,830.737 433.979,825.537 452.146,883.795C453.896,890.253 458.938,893.495 457.521,882.524C455.021,862.666 449.813,832.72 434.896,806.67L495.771,806.67ZM56.438,313.903C61.396,303.716 66.229,294.233 68.896,283.066C70.646,272.533 67.063,276.445 65.021,283.349C62.021,292.92 53.688,297.283 45.938,297.387C31.896,297.574 24.896,286.537 25.313,274.662C23.813,262.166 36.438,253.328 45.979,254.008C53.188,254.52 59.438,258.391 63.229,261.403C65.688,262.72 68.354,263.299 64.646,259.912C57.646,252.274 51.854,247.562 51.979,236.12C52.104,225.37 61.271,214.166 73.438,214.516C88.646,214.958 95.563,226.558 95.563,237.349C95.521,245.224 91.563,252.462 85.479,256.949C81.563,260.141 82.646,262.533 87.146,259.508C91.479,255.791 96.604,254.166 101.938,254.049C116.479,253.824 122.146,266.391 121.313,278.07C120.521,289.008 111.229,300.27 98.938,298.995C87.979,297.737 82.229,288.537 78.938,279.091C77.854,276.195 76.104,275.412 76.146,279.728C78.688,300.803 86.521,313.916 86.604,313.903L56.438,313.903ZM876.896,988.916C871.896,999.103 867.063,1008.58 864.438,1019.75C862.688,1030.28 866.271,1026.37 868.313,1019.47C871.313,1009.89 879.646,1005.54 887.396,1005.43C901.438,1005.24 908.438,1016.28 908.021,1028.16C909.521,1040.65 896.854,1049.49 887.313,1048.81C880.146,1048.3 873.896,1044.42 870.104,1041.41C867.604,1040.1 864.979,1039.52 868.688,1042.91C875.646,1050.55 881.479,1055.26 881.354,1066.7C881.229,1077.45 872.063,1088.65 859.896,1088.3C844.646,1087.86 837.729,1076.26 837.771,1065.47C837.813,1057.6 841.771,1050.36 847.813,1045.87C851.771,1042.68 850.646,1040.29 846.188,1043.31C841.854,1047.02 836.729,1048.65 831.396,1048.77C816.854,1049 811.188,1036.43 812.021,1024.75C812.771,1013.81 822.104,1002.55 834.396,1003.82C845.354,1005.08 851.104,1014.28 854.396,1023.73C855.479,1026.62 857.229,1027.41 857.188,1023.09C854.646,1002.02 846.771,988.903 846.729,988.916L876.896,988.916Z" style="fill-rule:nonzero;"/>
    </g>
</svg>
